!!!COM: Palestrina, Giovanni Perluigi da
!!!OPR: Lauda Sion
!!!OTL: Kyrie
**kern	**kern	**kern	**kern
*Ibass	*Itenor	*Icalto	*Icant
!Bassus	!Tenor	!Altus	!Cantus
*clefF4	*clefGv2	*clefG2	*clefG2
*k[]	*k[]	*k[]	*k[]
*G:mix	*G:mix	*G:mix	*G:mix
*M4/2	*M4/2	*M4/2	*M4/2
=1	=1	=1	=1
0r	0r	1r	1d
.	.	1G	1g
=2	=2	=2	=2
0r	0r	1.c	1g
.	.	.	1a
.	.	2d	.
=3	=3	=3	=3
0r	0r	1e	1g
.	.	2c	[1cc
.	.	2e	.
=4	=4	=4	=4
0r	1r	2f	2cc]
.	.	1g	2b
.	1D	.	1a
.	.	2f	.
=5	=5	=5	=5
1GG	1G	2e	2.g
.	.	2d	.
.	.	.	4f
[1C	1G	2c	4e
.	.	.	4c
.	.	[2e	[2g
=6	=6	=6	=6
2C]	1A	2e]	2g]
2D	.	4d	2f#
.	.	4c	.
1E	1G	1B	1g
=7	=7	=7	=7
2C	1.c	1e	2r
2E	.	.	2g
2F#	.	1d	2a
[2G	2B	.	2b
=8	=8	=8	=8
2G]	1A	2r	2cc
2F#	.	2d	2.dd
2G	1G	2.B	.
.	.	.	4cc
[2G	.	.	4b
.	.	4c	4a
=9	=9	=9	=9
2G]	2r	2d	2g
2E	2G	2e	1cc
2F#	2A	1d	.
2G	2B	.	2b
=10	=10	=10	=10
2A	2c	2r	1a
2F#	2.d	2A	.
[1G	.	2.B	2.dd
.	4c	.	.
.	4B	.	.
.	4A	4c	4cc
=11	=11	=11	=11
2G]	2G	1d	2b
2F	2A	.	2a
2E	2B	[1e	2g
2C	[2c	.	[2a
=12	=12	=12	=12
1E	4c]	2e]	4a]
.	4B	.	4g
.	2G	2c	1g
1D	1A	1d	.
.	.	.	2f#
=13	=13	=13	=13
0GG	0G	0B	0g
=14	=14	=14	=14
0r	1r	2r	1a
.	.	2d	.
.	2r	2d	1b
.	2G	2d	.
=15	=15	=15	=15
0r	2G	2e	1g
.	2G	2d	.
.	2A	2c	1e
.	2G	2B	.
=16	=16	=16	=16
0r	2.F	2A	1.a
.	.	1f	.
.	4E	.	.
.	2D	.	.
.	2G	[2e	2g
=17	=17	=17	=17
0r	1B-	4e]	2f
.	.	4d	.
.	.	1d	4e
.	.	.	4d
.	[1A	.	1e
.	.	2c#	.
=18	=18	=18	=18
1D	1A]	2.d	1f#
.	.	4c	.
1E	2r	1B	2g
.	2G	.	2b
=19	=19	=19	=19
1C	2G	2r	2cc
.	2G	2e	2cc
1AA	2.A	2e	1cc
.	.	2e	.
.	4G	.	.
=20	=20	=20	=20
1.D	2F	1.f	0a
.	4D	.	.
.	4E	.	.
.	4F	.	.
.	4G	.	.
2C	[2A	2e	.
=21	=21	=21	=21
2BB	4A]	2d	1r
.	4D	.	.
4AA	1G	2e	.
4GG	.	.	.
1AA	.	1c	2r
.	4F	.	2a
.	4E	.	.
=22	=22	=22	=22
1D	1F#	2r	2a
.	.	2d	2a
1GG	2G	2d	2.b
.	2d	2B	.
.	.	.	4a
=23	=23	=23	=23
2r	1e	2.c	2g
2C	.	.	2.cc
.	.	4d	.
2C	1c	1e	.
.	.	.	4b
2C	.	.	4a
.	.	.	4g
=24	=24	=24	=24
1D	1A	2.d	4f#
.	.	.	4g
.	.	.	4a
.	.	4c	4f#
4GG	[1d	1B	2g
4AA	.	.	.
4BB	.	.	4d
4C	.	.	4e
=25	=25	=25	=25
4D	2d]	1A	4f
4E	.	.	4g
2F	2c	.	2.a
1G	2B	[1d	.
.	.	.	4g
.	4A	.	[2g
.	4G	.	.
=26	=26	=26	=26
1D	1A	0d]	2g]
.	.	.	2f#
1GG	1B	.	1g
=27	=27	=27	=27
0D	0A	0d	0f#
=28	=28	=28	=28
1r	1A	0r	0r
2r	1B-	.	.
[2G	.	.	.
=29	=29	=29	=29
2G]	1A	0r	0r
2F	.	.	.
2E	2G	.	.
2D	[2A	.	.
=30	=30	=30	=30
2.C	4A]	0r	1r
.	4G	.	.
.	1G	.	.
4BB	.	.	.
1AA	.	.	1a
.	2F#	.	.
=31	=31	=31	=31
1GG	1G	2r	1b-
.	.	1g	.
2r	1D	.	1a
2D	.	2f	.
=32	=32	=32	=32
2E	0r	2e	2g
2.F	.	2d	2.a
.	.	2.c	.
4E	.	.	4g
2C	.	.	[2g
.	.	4B	.
=33	=33	=33	=33
1D	2r	1A	2g]
.	1d	.	2f#
2.E	.	1G	1g
.	2c	.	.
4F	.	.	.
=34	=34	=34	=34
1.G	2B	0r	0d
.	4G	.	.
.	4A	.	.
.	4B	.	.
.	4c	.	.
2F#	[2d	.	.
=35	=35	=35	=35
2G	2d]	1e	1r
2A	2c#	.	.
4D	1d	1f	2r
4E	.	.	.
4F	.	.	[2dd
4G	.	.	.
=36	=36	=36	=36
1A	2r	1e	2dd]
.	2A	.	2cc
1r	2B	2d	2b
.	[2c	[2e	2a
=37	=37	=37	=37
1r	4c]	4e]	2.g
.	4B	4d	.
.	2G	1d	.
.	.	.	4f
2r	1A	.	1e
2A	.	2c#	.
=38	=38	=38	=38
1B-	2r	2.d	4d
.	.	.	4e
.	1d	.	4f
.	.	4e	4g
1A	.	2f	1a
.	2c	4e	.
.	.	4d	.
=39	=39	=39	=39
2G	2B	0e	0r
2.A	2.c	.	.
4G	4B	.	.
[2G	2B	.	.
=40	=40	=40	=40
2G]	1A	1d	1a
2F#	.	.	.
1G	1G	2r	1b-
.	.	[2g	.
=41	=41	=41	=41
2r	1d	2g]	1a
2D	.	2f	.
2E	2r	2e	2g
2F	2A	4d	[2a
.	.	4c	.
=42	=42	=42	=42
2E	2B	1e	4a]
.	.	.	4g
2C	2c	.	1g
1D	1A	1d	.
.	.	.	2f#
=43	=43	=43	=43
[0GG	[0G	[0d	[0g
=44	=44	=44	=44
0GG]	0G]	0d]	0g]
==	==	==	==
*-	*-	*-	*-
!!!CDT: 1525/^1526/-1594/2/2
!!!OCY: Italia
!!!AGN: Mass (Parody)
!!!AST: renaissance, vocal
!!!ASW: Motet 1563 (Palestrina)
!!!PWK: Masses, Book 4
!!!RNB: Cadence finals: D
!!!YOR: Le Opere Complete, v. 10, p. 1
!!!YOO: Rome, Italy: Fratelli Scalera
!!!END: 1992//
!!!EED: John Miller
!!!YEC: Copyright 2000, John Miller
!!!YEN: United States of America
!!!YEM: Rights to all derivative electronic formats reserved.
!!!YEM: Refer to licensing agreement for further details.
!!!YEM: This file must be accompanied by the licensing agreement.
!!!YEM: A copy of the licensing agreement may be found at http://www.music-cog.ohio-state.edu/HumdrumDatabases/Palestrina/license.txt
!!!EMD: converted to Humdrum by Bret Aarden
